assets/img/icons/duotone-icons/Shopping/Box#2.svg

<?xml version="1.0" encoding="UTF-8"?>
<svg width="24px" height="24px" viewBox="0 0 24 24" version="1.1" xmlns="http://www.w3.org/2000/svg" xmlns:xlink="http://www.w3.org/1999/xlink">
    <!-- Generator: Sketch 52.2 (67145) - http://www.bohemiancoding.com/sketch -->
    <title>Stockholm-icons / Shopping / Box#2</title>
    <desc>Created with Sketch.</desc>
    <g id="Stockholm-icons-/-Shopping-/-Box#2" stroke="none" stroke-width="1" fill="none" fill-rule="evenodd">
        <rect id="bound" x="0" y="0" width="24" height="24"></rect>
        <path d="M4,9.67471899 L10.880262,13.6470401 C10.9543486,13.689814 11.0320333,13.7207107 11.1111111,13.740321 L11.1111111,21.4444444 L4.49070127,17.526473 C4.18655139,17.3464765 4,17.0193034 4,16.6658832 L4,9.67471899 Z M20,9.56911707 L20,16.6658832 C20,17.0193034 19.8134486,17.3464765 19.5092987,17.526473 L12.8888889,21.4444444 L12.8888889,13.6728275 C12.9050191,13.6647696 12.9210067,13.6561758 12.9368301,13.6470401 L20,9.56911707 Z" id="Combined-Shape" fill="#335EEA"></path>
        <path d="M4.21611835,7.74669402 C4.30015839,7.64056877 4.40623188,7.55087574 4.5299008,7.48500698 L11.5299008,3.75665466 C11.8237589,3.60013944 12.1762411,3.60013944 12.4700992,3.75665466 L19.4700992,7.48500698 C19.5654307,7.53578262 19.6503066,7.60071528 19.7226939,7.67641889 L12.0479413,12.1074394 C11.9974761,12.1365754 11.9509488,12.1699127 11.9085461,12.2067543 C11.8661433,12.1699127 11.819616,12.1365754 11.7691509,12.1074394 L4.21611835,7.74669402 Z" id="Path" fill="#335EEA" opacity="0.3"></path>
    </g>
</svg>

<svg width="24" height="24" viewBox="0 0 24 24" xmlns="http://www.w3.org/2000/svg"><g fill="none" fill-rule="evenodd"><path d="M0 0h24v24H0z"/><path d="M4 9.675l6.88 3.972a.89.89 0 00.231.093v7.704l-6.62-3.918a1 1 0 01-.491-.86V9.675zm16-.106v7.097a1 1 0 01-.49.86l-6.621 3.918v-7.771a.903.903 0 00.048-.026L20 9.569z" fill="#335EEA"/><path d="M4.216 7.747a.999.999 0 01.314-.262l7-3.728a1 1 0 01.94 0l7 3.728c.095.05.18.116.253.191l-7.675 4.431a.893.893 0 00-.14.1.893.893 0 00-.139-.1l-7.553-4.36z" fill="#335EEA" opacity=".3"/></g></svg>
